icons/flag.svg

<svg xmlns="http://www.w3.org/2000/svg" width="24" height="24" viewBox="0 0 24 24">
  <path d="M4,21 C4,21.5522847 3.55228475,22 3,22 C2.48716416,22 2.06449284,21.6139598 2.00672773,21.1166211 L2,21 L2,3 C2,2.44771525 2.44771525,2 3,2 L10.1715729,2 C10.7020059,2 11.2107137,2.21071368 11.5857864,2.58578644 L12.4142136,3.41421356 C12.7892863,3.78928632 13.2979941,4 13.8284271,4 L21.1314829,4 C21.6837677,4 22.1314829,4.44771525 22.1314829,5 C22.1314829,5.19742499 22.0730449,5.39043268 21.9635332,5.5547002 L19,10 L21.9635332,14.4452998 C22.2698857,14.9048285 22.1457118,15.5256978 21.6861831,15.8320503 C21.5219156,15.941562 21.3289079,16 21.1314829,16 L11.8284271,16 C11.2979941,16 10.7892863,15.7892863 10.4142136,15.4142136 L9.58578644,14.5857864 C9.21071368,14.2107137 8.70200585,14 8.17157288,14 L4,14 L4,21 Z"/>
</svg>

<svg xmlns="http://www.w3.org/2000/svg" viewBox="0 0 24 24">
  <path d="M4 21a1 1 0 0 1-2 .12V3a1 1 0 0 1 1-1h7.17a2 2 0 0 1 1.42.59l.82.82a2 2 0 0 0 1.42.59h7.3a1 1 0 0 1 .83 1.55L19 10l2.96 4.45a1 1 0 0 1-.83 1.55h-9.3a2 2 0 0 1-1.42-.59l-.82-.82A2 2 0 0 0 8.17 14H4v7z"/>
</svg>
